X: 7447
T: Clueless
R: reel
M: 4/4
K: Bminor
|:z|Beed efge|f2 df edBA|Bd d2 dBAB|d2 AB dABd|
Beed efge|f2 df edBA|Bd d2 dBAB|d2 fd e3:|
f|geee aeee|geae geee|fdec dBAB|d2 fd Adfd|
geee aeee|geae geee|fdec dBAB|d2 fd e3 f|
geea eege|eaee geee|fdec dBAB|d2 fd Adfd|
geea eege|eaee geee|fdec dBAB|d2 fd e3 z||

